images/offers/university.svg

<svg width="35" height="35" viewBox="0 0 35 35" fill="none" xmlns="http://www.w3.org/2000/svg">
<path d="M33.9062 8.74996V9.84371C33.9062 9.98875 33.8486 10.1278 33.7461 10.2304C33.6435 10.333 33.5044 10.3906 33.3594 10.3906H31.7188V11.2109C31.7188 11.6639 31.3515 12.0312 30.8984 12.0312H4.10156C3.64855 12.0312 3.28125 11.6639 3.28125 11.2109V10.3906H1.64062C1.49558 10.3906 1.35648 10.333 1.25393 10.2304C1.15137 10.1278 1.09375 9.98875 1.09375 9.84371V8.74996C1.09375 8.64177 1.12584 8.536 1.18597 8.44606C1.24609 8.35611 1.33154 8.28601 1.43151 8.24464L17.2909 2.22902C17.4248 2.17358 17.5752 2.17358 17.7091 2.22902L33.5685 8.24464C33.6685 8.28601 33.7539 8.35611 33.814 8.44606C33.8742 8.536 33.9062 8.64177 33.9062 8.74996ZM32.2656 29.5312H2.73438C1.82827 29.5312 1.09375 30.2657 1.09375 31.1718V32.2656C1.09375 32.4106 1.15137 32.5497 1.25393 32.6523C1.35648 32.7548 1.49558 32.8125 1.64062 32.8125H33.3594C33.5044 32.8125 33.6435 32.7548 33.7461 32.6523C33.8486 32.5497 33.9062 32.4106 33.9062 32.2656V31.1718C33.9062 30.2657 33.1717 29.5312 32.2656 29.5312ZM6.5625 13.125V26.25H4.10156C3.64855 26.25 3.28125 26.6173 3.28125 27.0703V28.4375H31.7188V27.0703C31.7188 26.6173 31.3515 26.25 30.8984 26.25H28.4375V13.125H24.0625V26.25H19.6875V13.125H15.3125V26.25H10.9375V13.125H6.5625Z" fill="white"/>
</svg>

<svg width="35" height="35" xmlns="http://www.w3.org/2000/svg" fill="none" viewBox="0 0 35 35"><path fill="#fff" d="M33.906 8.75v1.094a.547.547 0 0 1-.547.547h-1.64v.82a.82.82 0 0 1-.82.82H4.101a.82.82 0 0 1-.82-.82v-.82H1.64a.547.547 0 0 1-.547-.547V8.75a.547.547 0 0 1 .338-.505L17.29 2.229a.547.547 0 0 1 .418 0l15.86 6.016a.546.546 0 0 1 .337.505Zm-1.64 20.781H2.734a1.64 1.64 0 0 0-1.64 1.64v1.095a.547.547 0 0 0 .547.547h31.718a.547.547 0 0 0 .547-.547v-1.094a1.64 1.64 0 0 0-1.64-1.64ZM6.563 13.125V26.25H4.101a.82.82 0 0 0-.82.82v1.367h28.437V27.07a.82.82 0 0 0-.82-.82h-2.462V13.125h-4.375V26.25h-4.375V13.125h-4.375V26.25h-4.374V13.125H6.561Z"/></svg>
